pp/crown_print.svg

<svg viewBox="0 0 20 20" fill="none" xmlns="http://www.w3.org/2000/svg" height="1em" width="1em">
  <g opacity="0.8">
    <path d="M4.62008 8.49566C4.40264 7.60382 5.40113 6.91478 6.1578 7.43451L7.98763 8.69136C8.45858 9.01484 9.10437 8.87867 9.40461 8.39257L10.6492 6.37749C11.04 5.74482 11.96 5.74482 12.3508 6.37749L13.5954 8.39257C13.8957 8.87867 14.5414 9.01485 15.0124 8.69136L16.8422 7.43451C17.5989 6.91478 18.5974 7.60382 18.3799 8.49566L16.9802 14.2369C16.871 14.6848 16.4697 15 16.0086 15H6.99138C6.53033 15 6.12904 14.6848 6.01984 14.2369L4.62008 8.49566Z" fill="currentColor"/>
    <path fill-rule="evenodd" clip-rule="evenodd" d="M15.8249 10.5319C14.4523 11.2446 12.7283 10.7945 11.8938 9.44356L11.5 8.80596L11.1062 9.44356C10.2718 10.7945 8.54768 11.2446 7.17512 10.5319L7.77686 13H15.2232L15.8249 10.5319ZM6.1578 7.43451C5.40113 6.91478 4.40264 7.60382 4.62008 8.49566L6.01984 14.2369C6.12904 14.6848 6.53033 15 6.99138 15H16.0086C16.4697 15 16.871 14.6848 16.9802 14.2369L18.3799 8.49566C18.5974 7.60382 17.5989 6.91478 16.8422 7.43451L15.0124 8.69136C14.5414 9.01485 13.8957 8.87867 13.5954 8.39257L12.3508 6.37749C11.96 5.74482 11.04 5.74482 10.6492 6.37749L9.40461 8.39257C9.10437 8.87867 8.45858 9.01484 7.98763 8.69136L6.1578 7.43451Z" fill="currentColor"/>
    <path d="M12.5 4C12.5 4.55228 12.0523 5 11.5 5C10.9477 5 10.5 4.55228 10.5 4C10.5 3.44772 10.9477 3 11.5 3C12.0523 3 12.5 3.44772 12.5 4Z" fill="currentColor"/>
    <path d="M20 6C20 6.55228 19.5523 7 19 7C18.4477 7 18 6.55228 18 6C18 5.44772 18.4477 5 19 5C19.5523 5 20 5.44772 20 6Z" fill="currentColor"/>
    <path fill-rule="evenodd" clip-rule="evenodd" d="M6.25 16.5C6.25 16.0858 6.58579 15.75 7 15.75H15.7373C16.1515 15.75 16.4873 16.0858 16.4873 16.5C16.4873 16.9142 16.1515 17.25 15.7373 17.25H7C6.58579 17.25 6.25 16.9142 6.25 16.5Z" fill="currentColor"/>
    <path d="M5 6C5 6.55228 4.55228 7 4 7C3.44772 7 3 6.55228 3 6C3 5.44772 3.44772 5 4 5C4.55228 5 5 5.44772 5 6Z" fill="currentColor"/>
  </g>
  <path fill-rule="evenodd" clip-rule="evenodd" d="M14.8956 13.8182L16.4114 8.05171L14.1971 9.46236C13.2788 10.0473 12.0613 9.79033 11.4579 8.88413L10 6.69501L8.54215 8.88413C7.93867 9.79033 6.72119 10.0473 5.80293 9.46235L3.58857 8.05171L5.10444 13.8182L14.8956 13.8182ZM4.12585 7.20831C3.35855 6.7195 2.39013 7.42607 2.62143 8.30594L4.1373 14.0724C4.25282 14.5118 4.65007 14.8182 5.10444 14.8182H14.8956C15.3499 14.8182 15.7472 14.5118 15.8627 14.0724L17.3786 8.30595C17.6099 7.42607 16.6415 6.7195 15.8742 7.20831L13.6598 8.61895C13.2007 8.91144 12.5919 8.78294 12.2902 8.32984L10.8323 6.14072C10.4366 5.54644 9.56345 5.54644 9.16768 6.14072L7.70983 8.32984C7.40809 8.78294 6.79935 8.91144 6.34022 8.61895L4.12585 7.20831Z" fill="black"/>
  <path d="M10.9444 3.94545C10.9444 4.46761 10.5216 4.89091 9.99999 4.89091C9.47838 4.89091 9.05554 4.46761 9.05554 3.94545C9.05554 3.42329 9.47838 3 9.99999 3C10.5216 3 10.9444 3.42329 10.9444 3.94545Z" fill="black"/>
  <path d="M18.5 5.83635C18.5 6.35851 18.0771 6.78181 17.5555 6.78181C17.0339 6.78181 16.6111 6.35851 16.6111 5.83635C16.6111 5.31419 17.0339 4.8909 17.5555 4.8909C18.0771 4.8909 18.5 5.31419 18.5 5.83635Z" fill="black"/>
  <path d="M3.38889 5.83635C3.38889 6.35851 2.96605 6.78181 2.44444 6.78181C1.92284 6.78181 1.5 6.35851 1.5 5.83635C1.5 5.31419 1.92284 4.8909 2.44444 4.8909C2.96605 4.8909 3.38889 5.31419 3.38889 5.83635Z" fill="black"/>
  <path fill-rule="evenodd" clip-rule="evenodd" d="M5.25 16C5.25 15.7239 5.47386 15.5 5.75 15.5H14.4873C14.7635 15.5 14.9873 15.7239 14.9873 16C14.9873 16.2761 14.7635 16.5 14.4873 16.5H5.75C5.47386 16.5 5.25 16.2761 5.25 16Z" fill="black"/>
</svg>

<svg viewBox="0 0 20 20" fill="none" xmlns="http://www.w3.org/2000/svg" height="1em" width="1em">
  <g opacity=".8" fill="currentColor">
    <path d="M4.62 8.496c-.217-.892.781-1.581 1.538-1.061l1.83 1.256a1 1 0 0 0 1.417-.298l1.244-2.016a1 1 0 0 1 1.702 0l1.244 2.016a1 1 0 0 0 1.417.298l1.83-1.256c.757-.52 1.755.169 1.538 1.06l-1.4 5.742a1 1 0 0 1-.971.763H6.99a1 1 0 0 1-.971-.763l-1.4-5.741Z"/>
    <path fill-rule="evenodd" clip-rule="evenodd" d="M15.825 10.532a3 3 0 0 1-3.931-1.088l-.394-.638-.394.638a3 3 0 0 1-3.93 1.088l.6 2.468h7.447l.602-2.468ZM6.158 7.435c-.757-.52-1.755.169-1.538 1.06l1.4 5.742a1 1 0 0 0 .97.763h9.018a1 1 0 0 0 .971-.763l1.4-5.741c.217-.892-.781-1.581-1.538-1.061l-1.83 1.256a1 1 0 0 1-1.417-.298L12.35 6.377a1 1 0 0 0-1.702 0L9.405 8.393a1 1 0 0 1-1.417.298l-1.83-1.256Z"/>
    <path d="M12.5 4a1 1 0 1 1-2 0 1 1 0 0 1 2 0ZM20 6a1 1 0 1 1-2 0 1 1 0 0 1 2 0Z"/>
    <path fill-rule="evenodd" clip-rule="evenodd" d="M6.25 16.5a.75.75 0 0 1 .75-.75h8.737a.75.75 0 0 1 0 1.5H7a.75.75 0 0 1-.75-.75Z"/>
    <path d="M5 6a1 1 0 1 1-2 0 1 1 0 0 1 2 0Z"/>
  </g>
  <path fill-rule="evenodd" clip-rule="evenodd" d="m14.896 13.818 1.515-5.766-2.214 1.41a2 2 0 0 1-2.74-.578L10 6.695l-1.458 2.19a2 2 0 0 1-2.74.577L3.59 8.052l1.515 5.766h9.792Zm-10.77-6.61c-.767-.489-1.736.218-1.505 1.098l1.516 5.766a1 1 0 0 0 .967.746h9.792a1 1 0 0 0 .967-.746l1.516-5.766c.23-.88-.738-1.586-1.505-1.098l-2.214 1.41a1 1 0 0 1-1.37-.288l-1.458-2.19a1 1 0 0 0-1.664 0L7.71 8.33a1 1 0 0 1-1.37.289l-2.214-1.41Z" fill="#000"/>
  <path d="M10.944 3.945a.945.945 0 1 1-1.89.002.945.945 0 0 1 1.89-.002ZM18.5 5.836a.945.945 0 1 1-1.89.001.945.945 0 0 1 1.89 0Zm-15.111 0a.945.945 0 1 1-1.89.001.945.945 0 0 1 1.89 0Z" fill="#000"/>
  <path fill-rule="evenodd" clip-rule="evenodd" d="M5.25 16a.5.5 0 0 1 .5-.5h8.737a.5.5 0 1 1 0 1H5.75a.5.5 0 0 1-.5-.5Z" fill="#000"/>
</svg>
